X:43
T:Macdonald's Rant
M:C|
L:1/8
K:DMix
% first trills on each line don't display unless F's are followed by a space
TFA2f/g/ afed |gfed     BdBA |TFA2f/g/ afed|(e/f/g) (f/g/a) Te2d2:|
TFA3    TF>GAF|G/G/G G2 GABG |TFA2B    ABAF| GAFd           TE2D2:|
TFA2f/g/ afed |gfed     BdBA |TFA2f/g/ afed|(e/f/g) (f/g/a) Te2d2:|
 fa3     f>gaf|g/g/g g2 g>abg| fa2b    abaf| gafg           Te2d2:|

% @@@@@@@@@@@@@@@@@@@@@@@@@@@@@@@@@@

%% 44. ===============================================================================

% @LANCASTER HORNPIPE.@
%
% *LEAD down betwixt the first Couple and behind the backs of the second.  Lead up
% betwixt the 2d Couple, and by the backs of the first to the head.  *Lead down a
% little betwixt the first Couple, casting down the 2d.  Then do the same with the 2d
% Couple.  *SETT cross Partners.  *Lead out at the sides.

% @@@@@@@@@@@@@@@@@@@@@@@@@@@@@@@@@@

